X:720
T:Fughetta 1
C:Domenico Zipoli
O:Italy
Z:Transcribed by Frank Nordberg - http://www.musicaviva.com
F:http://abc.musicaviva.com/tunes/zipoli-domenico/zipoli-fughetta01/zipoli-fughetta01-pno2.abc
%This abc file is formatted for BarFly 1d24. It uses
%some features that has not at the moment (August 1999)
%been standarized in abc. Because of that some modifications
%might be necessary to display or play it with other abc programs.
V:1 Program 1 19 up %Church organ
V:2 Program 1 19 merge down %Church organ
V:3 Program 1 19 bass up %Church organ
V:4 Program 1 19 bass merge down %Church organ
M:12/8
L:1/8
K:F
V:1
ABc FGA Bcd GcB|AGF AGF GA=Bc3-|c3=B3c6|
V:2
x8 x4|x8 x4|x8 x4|
V:3
x8 x4|x8 x4|x8 x4|
V:4
x8 x4|z4 z2EFG CDE|FGA DGF EDC EDC|
%
V:1
fed cd_B ABA GAG|A6G6|[F6A6]efg cde|fga dgf efg cde|
V:2
x8 x4|F6-F3E3|x8 x4|x8 x4|
V:3
x8 x4|x8 x4|x8 x4|x8 x4|
V:4
[D3F3][E3G3]F3[C3E3]|A,B,C, F,G,A, B,C,D, G,C,B,|A,G,F, A,G,F,C3A,3|[F,3A,3][G,3=B,3][C6C,6]|
%
V:1
f3-[f3a3]def gfg|cde fef Bcd ede|x2 x d3-d3c3-|
V:2
x8 x4|x8 x4|A6G6|
V:3
z4 z2B,6|A,6G,6|x8 x4|
V:4
A,_B,C F,G,A, z2 z G,3-|G,3F,3-F,3E,3|F,G,A, B,A,B, E,F,G, A,G,A,|
%
V:1
c3B3-B3z2 z|FCF GCG ACA BCB|c2EF3-FEDE3|[F12C12]|]
V:2
F6EFG CDE|x8 x4|x8 x C2B,|A,12|]
V:3
D,E,F, G,F,G,-G,6|A,3E,3F,3G,3|A,3-A,G,F, x4 x2|F,12|]
V:4
x4 x2 C,6-|C,6-C,6|C,6[C,6G,6]|F,,12|]
W:
W:
W:  From Musica Viva - http://www.musicaviva.com
W:  the Internet center for free sheet music downloads.
